X:1
T:Title
%%score { ( 1 5 ) | ( 2 3 4 ) }
L:1/8
Q:1/4=100
M:4/4
K:Eb
V:1 treble nm="Grand Piano"
V:5 treble 
V:2 bass 
V:3 bass 
V:4 bass 
V:1
 G2 G>F E2 E>E | [FA]2 [FA]>[EG] [DF]4 | [FA]2 [FA]>[EG] [DF]2 [DF]>[DF] | [DB]2 [DB]>[FA] [EG]4 | %4
w: C.~Austin~Miles * * * * *||||
 [GB]2 [GB]>[FA] [EG]2 [EG]>[GB] | [Ac]2 [Ad]>[Ad] [Ge]4 | d d2 d e d2 c | [B,DB]2 z2 c2 d2 | %8
w: ||||
 e [Ge]2 [Gc] [Ad]2 z2 | [Ad] [Ad]2 [AB] [Gc]2 z2 | B2 =A>G F [FB]2 [Gc] | d2 d>c [B,DB]4 | %12
w: ||||
 [FA]2 [EG]>G [FA]2 [DF]2 | [GB]2 [_G=A]>A B2 =G2 | d d3 dB c2 | B2 B,2 C2 D2 | %16
w: ||||
 e [Ge]2 [Gc] [Ad]2 z2 | [Ad] [Ad]2 [AB] [Gc]2 z2 | B2 =A>G F [FB]2 [Gc] | d2 d>c [B,DB]4 | %20
w: ||||
 [FA]2 [EG]>G [FA]2 [DF]2 | [GB]2 [_G=A]>A B2 =G2 | [GB] [GB]3 d c2 B | e6 z2 |] %24
w: ||||
V:2
 [E,B,E]2 [E,B,E]>[E,A,E] [E,G,]2 [E,G,]>[E,G,] | [B,,B,]2 [B,,B,]>[B,,B,] [B,,B,]4 | %2
 [B,,B,]2 [B,,B,]>[B,,B,] [B,,B,]2 [B,,B,]>[B,,B,] | [B,,F,]2 [B,,F,]>[B,,B,] [E,B,]4 | %4
 [E,E]2 [E,E]>[E,E] [E,B,]2 [E,B,]>[E,E] | [A,E]2 [F,B,]>[F,B,] [E,B,]4 | %6
 [F,B,F] [F,B,F]2 [F,B,F] [F,=A,G] [F,A,F]2 [F,A,E] | B,,2[K:treble] B2 =A2 _A2 | %8
 [G,EG][K:bass] [E,B,]2 [E,B,] [F,B,]2 z2 | [B,,B,] [B,,B,]2 [B,,B,] [E,B,]2 z2 | %10
 [=E,G,_D]2 [E,=A,D]>[E,B,D] [F,B,=D] [D,B,]2 [E,B,] | [F,B,F]2 [F,B,F]>[F,=A,E] B,,4 | %12
 z2 z z/ E/ B,2 B,2 | z2 z z/[K:treble] _G/ [B,=G]2 [B,E]2 | %14
 [F,B,F] [F,B,F]3[K:bass] [F,B,F][F,B,D] [F,=A,E]2 | [B,D]2 z2[K:treble] =A,2 _A,2 | %16
 [G,EG][K:bass] [E,B,]2 [E,B,] [F,B,]2 z2 | [B,,B,] [B,,B,]2 [B,,B,] [E,B,]2 z2 | %18
 [=E,G,_D]2 [E,=A,D]>[E,B,D] [F,B,=D] [D,B,]2 [E,B,] | [F,B,F]2 [F,B,F]>[F,=A,E] B,,4 | %20
 z2 z z/ E/ B,2 B,2 | z2 z z/[K:treble] _G/ [B,=G]2[K:bass] [B,E]2 | %22
 [E,E] [E,E]3[K:treble] [A,FA] [B,EA]2 [B,DA] | B, C2 =A, B,2 z2 |] %24
V:3
 x8 | x8 | x8 | x8 | x8 | x8 | x8 | x2[K:treble] x6 | x[K:bass] x7 | x8 | x8 | x8 | z2 B,2 z4 | %13
 z2 B,2[K:treble] z4 | x4[K:bass] x4 | x4[K:treble] x4 | x[K:bass] x7 | x8 | x8 | x8 | z2 B,2 z4 | %21
 z2 B,2[K:treble] z4[K:bass] | x4[K:treble] x4 | E,6 z2 |] %24
V:4
 x8 | x8 | x8 | x8 | x8 | x8 | x8 | x2[K:treble] x6 | x[K:bass] x7 | x8 | x8 | x8 | B,,6 z2 | %13
 E,6[K:treble] z2 | x4[K:bass] x4 | x4[K:treble] x4 | x[K:bass] x7 | x8 | x8 | x8 | B,,6 z2 | %21
 E,6[K:treble][K:bass] z2 | x4[K:treble] x4 | x8 |] %24
V:5
 x8 | x8 | x8 | x8 | x8 | x8 | x8 | x8 | x8 | x8 | x8 | x8 | x8 | x8 | x8 | x8 | x8 | x8 | x8 | %19
 x8 | x8 | x8 | x8 | G A2 _G =G2 z2 |] %24

